images/icon/ig_c.svg

<svg width="32" height="32" viewBox="0 0 32 32" fill="none" xmlns="http://www.w3.org/2000/svg">
<g clip-path="url(#clip0)">
<path d="M15.63 31.28C24.2622 31.28 31.26 24.2777 31.26 15.64C31.26 7.00227 24.2622 0 15.63 0C6.99779 0 0 7.00227 0 15.64C0 24.2777 6.99779 31.28 15.63 31.28Z" fill="#89663D"/>
<path fill-rule="evenodd" clip-rule="evenodd" d="M20 8.53H11.27C10.5424 8.53264 9.84551 8.82354 9.33195 9.33898C8.81838 9.85442 8.53002 10.5524 8.53003 11.28V20C8.53002 20.7276 8.81838 21.4256 9.33195 21.941C9.84551 22.4565 10.5424 22.7474 11.27 22.75H20C20.7276 22.7474 21.4245 22.4565 21.9381 21.941C22.4517 21.4256 22.74 20.7276 22.74 20V11.28C22.74 10.5524 22.4517 9.85442 21.9381 9.33898C21.4245 8.82354 20.7276 8.53264 20 8.53V8.53ZM20.79 10.17H21.11V12.58H18.69V10.18L20.79 10.17ZM13.62 14.17C13.9322 13.7466 14.3695 13.432 14.8702 13.2707C15.3708 13.1093 15.9095 13.1093 16.4102 13.2706C16.9108 13.432 17.3481 13.7466 17.6603 14.1699C17.9725 14.5933 18.1438 15.104 18.15 15.63C18.1547 16.0281 18.0647 16.4216 17.8873 16.778C17.7099 17.1344 17.4503 17.4435 17.1299 17.6797C16.8095 17.916 16.4375 18.0727 16.0446 18.1368C15.6517 18.201 15.2492 18.1707 14.8702 18.0486C14.4913 17.9265 14.1469 17.716 13.8654 17.4345C13.5839 17.153 13.3734 16.8086 13.2512 16.4297C13.1291 16.0508 13.0989 15.6482 13.163 15.2553C13.2271 14.8624 13.3838 14.4904 13.62 14.17V14.17ZM21.36 20C21.36 20.3616 21.2171 20.7086 20.9623 20.9652C20.7075 21.2219 20.3616 21.3674 20 21.37H11.27C11.0906 21.37 10.9129 21.3345 10.7473 21.2655C10.5816 21.1966 10.4312 21.0955 10.3048 20.9681C10.1784 20.8408 10.0784 20.6897 10.0107 20.5235C9.94291 20.3574 9.90871 20.1794 9.91003 20V14.18H12C11.8163 14.6449 11.7213 15.1401 11.72 15.64C11.6933 16.1668 11.774 16.6935 11.9571 17.1881C12.1403 17.6827 12.4222 18.1349 12.7855 18.5172C13.1489 18.8995 13.5863 19.2039 14.071 19.4119C14.5556 19.6199 15.0776 19.7272 15.605 19.7272C16.1325 19.7272 16.6544 19.6199 17.1391 19.4119C17.6238 19.2039 18.0611 18.8995 18.4245 18.5172C18.7879 18.1349 19.0698 17.6827 19.2529 17.1881C19.4361 16.6935 19.5168 16.1668 19.49 15.64C19.4906 15.139 19.392 14.6428 19.2 14.18H21.33L21.36 20Z" fill="black"/>
</g>
<defs>
<clipPath id="clip0">
<rect width="31.27" height="31.29" fill="white"/>
</clipPath>
</defs>
</svg>

<svg xmlns="http://www.w3.org/2000/svg" xmlns:xlink="http://www.w3.org/1999/xlink" viewBox="0 0 31.26 31.28"><defs><style>.cls-1{fill:none;}.cls-2{clip-path:url(#clip-path);}.cls-3{fill:#b0935b;}.cls-4{fill-rule:evenodd;}</style><clipPath id="clip-path"><rect class="cls-1" width="31.27" height="31.29"/></clipPath></defs><g id="Layer_2" data-name="Layer 2"><g id="Layer_1-2" data-name="Layer 1"><g class="cls-2"><path class="cls-3" d="M15.63,31.28A15.64,15.64,0,1,0,0,15.64,15.63,15.63,0,0,0,15.63,31.28Z"/><path class="cls-4" d="M20,8.53H11.27a2.75,2.75,0,0,0-2.74,2.75V20a2.75,2.75,0,0,0,2.74,2.75H20A2.75,2.75,0,0,0,22.74,20V11.28A2.75,2.75,0,0,0,20,8.53Zm.79,1.64h.32v2.41H18.69v-2.4Zm-7.17,4a2.51,2.51,0,0,1,4.53,1.46,2.69,2.69,0,0,1-.26,1.15,2.63,2.63,0,0,1-.76.9,2.52,2.52,0,0,1-1.09.46,2.58,2.58,0,0,1-1.17-.09,2.58,2.58,0,0,1-1.62-1.62,2.58,2.58,0,0,1-.09-1.17,2.52,2.52,0,0,1,.46-1.09ZM21.36,20A1.37,1.37,0,0,1,20,21.37H11.27a1.5,1.5,0,0,1-.52-.1,1.37,1.37,0,0,1-.45-.3,1.51,1.51,0,0,1-.29-.45,1.3,1.3,0,0,1-.1-.52V14.18H12a4,4,0,0,0-.28,1.46A3.74,3.74,0,0,0,12,17.19a3.87,3.87,0,0,0,.83,1.33,3.93,3.93,0,0,0,1.28.89,3.84,3.84,0,0,0,3.07,0,3.93,3.93,0,0,0,1.28-.89,3.87,3.87,0,0,0,.83-1.33,3.74,3.74,0,0,0,.24-1.55,3.84,3.84,0,0,0-.29-1.46h2.13Z"/></g></g></g></svg>
